X: 3
T: Will You Come Home With Me
R: jig
M: 6/8
L: 1/8
K: Gmaj
B|dge fdc|B2d cAF|G2G ABA|GFG ABc|dge fdc|B2d cAF|G2G ABF|G3 G2:|B|:d2B cBA|dcB cAF|G2G ABA|GFG ABc|d2B cBA|dcB cAF|G2G ABF|G3 G2:|


Tune 1220	Setting 21734

